X: 40
T: Adanın Yeşil Çamları
C: Şükrü Tunar
O: Turkey
F: http://compmusic.upf.edu/node/140
N: huzzam--sarki--aksak--adanin_yesil_camlari--sukru_tunar
N: makam= huzzam
N: form= sarki
N: usul= aksak = 9/8
M: 9/8
L: 1/16
K: C _1/4B _3/4e ^3/4f 
Q: 1/4=144
%%MIDI tuningsystem comma53
cd2d d2de dcBc dede dc | de2dag gffe edd2 e2f2  | 
w:  ARANAĞME  |   | 
df2f f2ed fga_b agfe dc | Bc def2 eddc cBB2 c2d2  | 
w:   |   | 
cd2d d2de dcBc dede dc | de2dag gffe edd2 e2f2  | 
w:  ARANAĞME  |   | 
df2f f2ed fga_b agfe dc | Bc def2 eddc cBB6  | 
w:   |   | 
z4 f2g2 f2e2 d2e2 f2 | d2 d6d2 c2ed c2cB  | \
w:  A da nın   |  ye şil  çam *  la  | 
B6de dcBc d3c Bc | 
w:  rı  SAZ  | 
d4c2 d2d4de dedc  | defg feed e8 ed | 
w:  *  aş kı mı za   |  yer  *  *  *  ol *  *  *  sun   | 
e3df2 g2f2 e2d2 e2f2  | a2gf feed d4 f4 ^eg | \
w:  *  *  aş kı mı *  za   |  yer  *  *  ol *  *  *  sun  SAZ  | 
f4f2 f2f4f2 e2d2  | 
w:  *  Ne  ça re   | 
g2g6 f2ed agfe ed | d12dc B^AB2  | B4 B4 B2cd dcBA G2 | 
w:  a yır dı  *  *  *  *  *  *  fe  |  lek   |  kalp le ri *  *  miz   | 
d3edc cBd8cB  | c4 d2e2 f2g2 f2e2 d2 | \
w:  bir  *  ol *  *  *  sun   |  *  kalp le ri *  miz   | 
ag fedc cBB4f4^eg  | 
w:  bir  *  *  *  ol *  *  *  sun  SAZ  | 
f4 f2f2 f4 f2e2 d2 | g2 g6f2 edag feed  | \
w:  *  Ne  ça re   |  a yır dı  *  *  *  *  *  *  fe  | 
d12 dcB^A B2 | 
w:  lek   | 
B4B4B2 cddc BAG2  | d3e dccB d8 cB | \
w:  kalp le ri *  *  miz   |  bir  *  ol *  *  *  sun   | 
c4d2 e2f2 g2f2 e2d2  | 
w:  *  kalp le ri *  miz   | 
agfe dccB B4 f4 ^eg | f4f2 f2f4f6  | \
w:  bir  *  *  *  ol *  *  *  sun  SAZ  |  *  İ pek  sa çın  | 
g4 ^a4 b4 agf^e fg | 
w:  dan  bir  tel  ver   | 
f4c'2 c'2c'2 b2_7/8b4a2  | a2g2 g2a_b agfe f4 ed | \
w:  *  ba na  ya *  di  |  gâr  *  ol *  *  sun   | 
e4g2 g2f2 e2d2 e2f2  | 
w:  *  ba na  ya *  di  | 
a2gf feed d4 f4 ^eg | f4f2 f2f4f2 e2d2  | \
w:  gâr  *  *  ol *  *  *  sun  SAZ  |  *  Ne  ça re   | 
g2g6 f2ed agfe ed | 
w:  a yır dı  *  *  *  *  *  *  fe  | 
d12dc B^AB2  | B4 B4 B2cd dcBA G2 | d3edc cBd8cB  | 
w:  lek   |  kalp le ri *  *  miz   |  bir  *  ol *  *  *  sun   | 
c4 d2e2 f2g2 f2e2 d2 | ag fedc cBB8z2  | |


